X:1303
T:D Gracenotes
O:Kevin Fraser
Z:Kevin Fraser
B: http://svenax.net/site/canntaireachd/2/
Q:1/4=120
K:HP
M:4/4
L:1/1
R:March
V:gstem=up stem=down
%%MIDI gracedivider 4
%%MIDI gchord
%%MIDI beatstring
T:Nether Lorn Canntaireachd
[| {d}G |{d}A |{d}B |{d}c | {d}c |{d}B |{d}A |{d}G|]
w: dam   dan to   do   | do   to   dan   dam||
w: dam dan doe dah | dah doe dan dam
V:2 clef=treble
z|x|x|x
V:3
L:1/1
%%stafflines 8
%%staffscale 2.
%%                 EGBdac'e'g'
[|{[EGBac'e'g']} [EGBdac'e'g'] |
{[EGBac'e'g']}  [GBdac'e'g'] |
{[GBac'e'g']}  [Bdac'e'g'] |
{[Bac'e'g']}  [Edac'e'g'] |
{[Eac'e'g']}  [Edac'e'g'] |
{[Eac'e'g']}  [Bdac'e'g'] |
{[Bac'e'g']}  [GBdac'e'g'] |
{[GBac'e'g']} [EGBdac'e'g'] |]
w:
T: SIUBHAL single (Piob)
B: Logan's Complete Tutor
M: 3/4
||{g}A>{d}c {g}B>{d}c {g}B>{G}A ||
w: Hin-do  Ho-to          ho-din ||
W:
T: Alternate Canntaireachd 
[| {d}G |{d}A |{d}B |{d}c | {d}c |{d}B |{d}A |{d}G|]
w: bam   dan do   do   | do   do   dan   bam||

